!!!COM: Gomółka, Mikołaj
!!!CDT: ~1535-after 1591
!!!OTL: Kleszczmy rękomá
!!!OTL@LAT: Omnes gentes
!!!AGn: Motet; Psalm
!!!SCn: Gom2047
!!!voices: 4
!!!CNT: Polish
!!!OCY: Poland
!!!LYR: Jan Kochanowski (1530-1584/08/22)
!!!GTL: Melodiae na Psałterz Polski
!!!EFL: 47/150
!!!PPR: Łazarz Andrysowicz
!!!PPP: Kraków
!!!PDT: 1580
!!!YEC: 2015 Marcin Konik
!!!ENC: Marcin Konik
!!!END: 2015/05/19
!!!EED: Marcin Konik
!!!EEV: 2015/05/19
!!!ONB: Translated from MusicXML and edited on 2015/03/06 by Marcin Konik
!!!CharacterEncoding: utf-8
!!muse2ps: i2I150v85,85,85,150Q16
**kern	**kern	**kern	**kern
*staff4	*staff3	*staff2	*staff1
*Ivox	*Ivox	*Ivox	*Ivox
*I"Bassus	*I"Tenor	*I"Altus	*I"Cantus
*I'B	*I'T	*I'A	*I'C
*clefF3	*clefC3	*clefC2	*clefG2
*k[b-]	*k[b-]	*k[b-]	*k[b-]
*M2/1	*M2/1	*M2/1	*M2/1
*met(C|)	*met(C|)	*met(C|)	*met(C|)
=1-	=1-	=1-	=1-
1F	1f	1a	1cc
2F	2f	2a	2cc
=2	=2	=2	=2
1B-	1d	1b-	1dd
2B-	2d	2b-	2dd
=3	=3	=3	=3
1.c	1.e	1.g	1.cc
=4	=4	=4	=4
2.G	2.d	1g	1b-
4A	4c	.	.
2B-	2d	2f	2b-
=5	=5	=5	=5
1c	2.e	1c	1g
.	4d	.	.
2c	2e	2c	2g
=6	=6	=6	=6
1.F	1.f	1.c	1.a
=7:|:	=7:|:	=7:|:	=7:|:
2F	2a	2f	2cc
2B-	2g	2d	2dd
2c	2g	2c	2ee
=8	=8	=8	=8
1F	2.f	1c	1ff
.	4e	.	.
2F	4d	2f	2ff
.	4c	.	.
=9	=9	=9	=9
2.B-	1d	1f	1dd
4A	.	.	.
2G	2d	2g	2dd
=10	=10	=10	=10
4C	2c	1g	2.gg
4D	.	.	.
4E	2c	.	.
4F	.	.	4ff
2G	2B	2g	2dd
=11	=11	=11	=11
1.C	1.c	1.g	1.cc
=12	=12	=12	=12
2F	4c	2a	2ff
.	4d	.	.
2c	2e	4g	2ee
.	.	4a	.
2B-	2f	2b-	2dd
=13	=13	=13	=13
1A	1c	2f	1cc
.	.	4e	.
.	.	4f	.
2G	2G	2g	2b-
=14	=14	=14	=14
2.F	1A	1c	2.a
4E	.	.	4g
2D	2B-	2d	2f
=15	=15	=15	=15
1C	1c	2.e	2.cc
.	.	4d	4b-
2C	2c	2e	2g
=16	=16	=16	=16
1.F	1.c	1.f	1.a
==	==	==	==
*-	*-	*-	*-
